optimized/20/solid/calendar.svg

<svg xmlns="http://www.w3.org/2000/svg" viewBox="0 0 20 20">
  <path fill-rule="evenodd" d="M5.75 2C6.16421 2 6.5 2.33579 6.5 2.75V4H13.5V2.75C13.5 2.33579 13.8358 2 14.25 2C14.6642 2 15 2.33579 15 2.75V4H15.25C16.7688 4 18 5.23122 18 6.75V15.25C18 16.7688 16.7688 18 15.25 18H4.75C3.23122 18 2 16.7688 2 15.25V6.75C2 5.23122 3.23122 4 4.75 4H5V2.75C5 2.33579 5.33579 2 5.75 2ZM4.75 7.5C4.05964 7.5 3.5 8.05964 3.5 8.75V15.25C3.5 15.9404 4.05964 16.5 4.75 16.5H15.25C15.9404 16.5 16.5 15.9404 16.5 15.25V8.75C16.5 8.05964 15.9404 7.5 15.25 7.5H4.75Z" clip-rule="evenodd"/>
</svg>

<svg xmlns="http://www.w3.org/2000/svg" viewBox="0 0 20 20" fill="currentColor" aria-hidden="true">
  <path fill-rule="evenodd" d="M5.75 2a.75.75 0 01.75.75V4h7V2.75a.75.75 0 011.5 0V4h.25A2.75 2.75 0 0118 6.75v8.5A2.75 2.75 0 0115.25 18H4.75A2.75 2.75 0 012 15.25v-8.5A2.75 2.75 0 014.75 4H5V2.75A.75.75 0 015.75 2zm-1 5.5c-.69 0-1.25.56-1.25 1.25v6.5c0 .69.56 1.25 1.25 1.25h10.5c.69 0 1.25-.56 1.25-1.25v-6.5c0-.69-.56-1.25-1.25-1.25H4.75z" clip-rule="evenodd"/>
</svg>
